Newaita/actions/32/align-vertical-center.svg

<svg height="32" viewBox="0 0 32 32" width="32" xmlns="http://www.w3.org/2000/svg"><g fill="#424242"><path d="m6.613281 16.125c0 .367188-.292969.664062-.660156.664062h-2.644531c-.367188 0-.664063-.296874-.664063-.664062 0-.363281.296875-.660156.664063-.660156h2.644531c.367187 0 .660156.296875.660156.660156zm0 0"/><path d="m29.105469 16.125c0 .367188-.292969.664062-.660157.664062h-2.644531c-.367187 0-.664062-.296874-.664062-.664062 0-.363281.296875-.660156.664062-.660156h2.644531c.367188 0 .660157.296875.660157.660156zm0 0"/><path d="m18.523438 15.464844v1.324218h-4.632813v-1.324218zm0 0"/><path d="m15.875 8.1875c0-1.464844-1.179688-2.644531-2.644531-2.644531h-5.292969c-1.464844 0-2.644531 1.179687-2.644531 2.644531v15.878906c0 1.464844 1.179687 2.644532 2.644531 2.644532h5.292969c1.464843 0 2.644531-1.179688 2.644531-2.644532zm-2.644531.664062v14.550782c0 .367187-.296875.664062-.660157.664062h-3.96875c-.367187 0-.664062-.296875-.664062-.664062v-14.550782c0-.367187.296875-.664062.664062-.664062h3.96875c.363282 0 .660157.296875.660157.664062zm0 0"/><path d="m27.121094 12.15625c0-1.464844-1.179688-2.644531-2.644532-2.644531h-3.96875c-1.464843 0-2.648437 1.179687-2.648437 2.644531v7.9375c0 1.46875 1.183594 2.648438 2.648437 2.648438h3.96875c1.464844 0 2.644532-1.179688 2.644532-2.648438zm-2.644532.664062v6.613282c0 .367187-.296874.660156-.660156.660156h-2.648437c-.367188 0-.660157-.292969-.660157-.660156v-6.613282c0-.367187.292969-.664062.660157-.664062h2.648437c.363282 0 .660156.296875.660156.664062zm0 0"/></g></svg>

<svg xmlns="http://www.w3.org/2000/svg" xmlns:xlink="http://www.w3.org/1999/xlink" width="32px" height="32px" viewBox="0 0 32 32" version="1.1">
<g id="surface1">
     <defs>
  <style id="current-color-scheme" type="text/css">
   .ColorScheme-Text { color:#424242; } .ColorScheme-Highlight { color:#eeeeee; }
  </style>
 </defs>
<path style="fill:currentColor" class="ColorScheme-Text" d="M 6.613281 16.125 C 6.613281 16.492188 6.320312 16.789062 5.953125 16.789062 L 3.308594 16.789062 C 2.941406 16.789062 2.644531 16.492188 2.644531 16.125 C 2.644531 15.761719 2.941406 15.464844 3.308594 15.464844 L 5.953125 15.464844 C 6.320312 15.464844 6.613281 15.761719 6.613281 16.125 Z M 6.613281 16.125 "/>
     <defs>
  <style id="current-color-scheme" type="text/css">
   .ColorScheme-Text { color:#424242; } .ColorScheme-Highlight { color:#eeeeee; }
  </style>
 </defs>
<path style="fill:currentColor" class="ColorScheme-Text" d="M 29.105469 16.125 C 29.105469 16.492188 28.8125 16.789062 28.445312 16.789062 L 25.800781 16.789062 C 25.433594 16.789062 25.136719 16.492188 25.136719 16.125 C 25.136719 15.761719 25.433594 15.464844 25.800781 15.464844 L 28.445312 15.464844 C 28.8125 15.464844 29.105469 15.761719 29.105469 16.125 Z M 29.105469 16.125 "/>
     <defs>
  <style id="current-color-scheme" type="text/css">
   .ColorScheme-Text { color:#424242; } .ColorScheme-Highlight { color:#eeeeee; }
  </style>
 </defs>
<path style="fill:currentColor" class="ColorScheme-Text" d="M 18.523438 15.464844 L 18.523438 16.789062 L 13.890625 16.789062 L 13.890625 15.464844 Z M 18.523438 15.464844 "/>
     <defs>
  <style id="current-color-scheme" type="text/css">
   .ColorScheme-Text { color:#424242; } .ColorScheme-Highlight { color:#eeeeee; }
  </style>
 </defs>
<path style="fill:currentColor" class="ColorScheme-Text" d="M 15.875 8.1875 C 15.875 6.722656 14.695312 5.542969 13.230469 5.542969 L 7.9375 5.542969 C 6.472656 5.542969 5.292969 6.722656 5.292969 8.1875 L 5.292969 24.066406 C 5.292969 25.53125 6.472656 26.710938 7.9375 26.710938 L 13.230469 26.710938 C 14.695312 26.710938 15.875 25.53125 15.875 24.066406 Z M 13.230469 8.851562 L 13.230469 23.402344 C 13.230469 23.769531 12.933594 24.066406 12.570312 24.066406 L 8.601562 24.066406 C 8.234375 24.066406 7.9375 23.769531 7.9375 23.402344 L 7.9375 8.851562 C 7.9375 8.484375 8.234375 8.1875 8.601562 8.1875 L 12.570312 8.1875 C 12.933594 8.1875 13.230469 8.484375 13.230469 8.851562 Z M 13.230469 8.851562 "/>
     <defs>
  <style id="current-color-scheme" type="text/css">
   .ColorScheme-Text { color:#424242; } .ColorScheme-Highlight { color:#eeeeee; }
  </style>
 </defs>
<path style="fill:currentColor" class="ColorScheme-Text" d="M 27.121094 12.15625 C 27.121094 10.691406 25.941406 9.511719 24.476562 9.511719 L 20.507812 9.511719 C 19.042969 9.511719 17.859375 10.691406 17.859375 12.15625 L 17.859375 20.09375 C 17.859375 21.5625 19.042969 22.742188 20.507812 22.742188 L 24.476562 22.742188 C 25.941406 22.742188 27.121094 21.5625 27.121094 20.09375 Z M 24.476562 12.820312 L 24.476562 19.433594 C 24.476562 19.800781 24.179688 20.09375 23.816406 20.09375 L 21.167969 20.09375 C 20.800781 20.09375 20.507812 19.800781 20.507812 19.433594 L 20.507812 12.820312 C 20.507812 12.453125 20.800781 12.15625 21.167969 12.15625 L 23.816406 12.15625 C 24.179688 12.15625 24.476562 12.453125 24.476562 12.820312 Z M 24.476562 12.820312 "/>
</g>
</svg>
